public/rosemary.svg

<svg width="560" height="427" viewBox="0 0 560 427" fill="none" xmlns="http://www.w3.org/2000/svg">
<path d="M559 19.0139C559 19.0139 442.71 41.6706 306.442 125.244C170.174 208.817 136.051 273.987 136.051 273.987M438.73 51.4487C438.73 51.4487 423.906 39.8401 412.022 35.0875C400.139 30.335 376.008 22.4874 369.978 19.7495C363.957 17.0137 341.53 -3.19686 339.202 1.78697C336.875 6.7708 348.907 22.5749 357.636 25.9219C366.366 29.269 372.44 30.2979 383.658 35.2419C394.875 40.1859 412.468 52.4399 415.704 53.1495C420.993 54.3118 423.51 49.0602 417.945 47.1107C412.381 45.1613 401.592 48.505 394.964 48.604C388.335 48.703 316.988 40.8566 308.046 38.4973C299.105 36.1379 277.324 40.8637 305.652 49.6687C333.979 58.4736 377.328 55.0108 401.496 59.2424C425.662 63.4839 425.662 63.4839 425.662 63.4839M448.954 53.8283C448.839 54.1441 401.01 84.9587 375.777 117.486C350.544 150.014 381.909 122.66 387.376 117.691C392.852 112.724 408.775 100.131 423.277 88.254C431.588 81.4518 439.906 76.5666 446.09 73.064M446.09 73.064C448.611 64.7481 448.293 60.0061 453.355 59.5744C459.235 59.0788 458.654 64.2184 455.48 67.2818C454.12 68.5904 450.693 70.4473 446.09 73.064ZM446.09 73.064C444.256 79.1016 442.367 86.3692 440.403 93.1438C438.616 99.3161 436.768 105.071 434.857 109.123C427.945 123.749 393.292 162.072 386.691 172.284C380.098 182.508 352.466 220.356 356.408 224C360.351 227.644 369.569 212.503 373.176 207.466C376.222 203.194 425.732 138.534 447.585 102.872M447.585 102.872C451.577 96.3486 454.649 90.8078 456.338 86.7674C463.313 70.1264 466.333 55.2439 467.608 46.6468M447.585 102.872C445.74 108.214 442.774 115.601 438.001 125.324C426.267 149.196 391.109 194.292 388.02 198.41C384.93 202.538 371.231 229.747 394.59 202.999C417.952 176.242 437.801 143.877 442.84 135.032C447.89 126.178 454.481 115.964 460.19 95.2062C465.897 74.4579 462.713 70.985 462.713 70.985M443.768 81.1141C443.768 81.1141 382.959 139.755 374.518 157.142C366.07 174.517 358.929 188.75 382.063 161.599C405.196 134.449 419.914 115.734 424.713 110.966C429.512 106.198 440.411 93.1556 440.411 93.1556M406.197 60.0547C393.438 66.2778 361.659 81.6088 348.425 86.5133C331.664 92.724 307.722 103.113 295.318 105.161C282.914 107.208 254.752 110.836 286.41 99.7332C318.061 88.619 347.545 77.3679 357.895 73.1588C361.534 71.6811 365.523 69.1019 369.34 66.6184M369.34 66.6184C376.358 62.0511 382.747 57.8179 385.174 61.4204C386.46 63.326 379.5 65.0589 369.34 66.6184ZM369.34 66.6184C349.919 69.6089 318.793 71.9569 311.2 73.6401C299.634 76.1974 263.349 82.476 250.793 83.7746C238.237 85.0732 220.163 87.1664 220.163 87.1664C220.163 87.1664 188.406 85.53 220.026 77.5155C251.656 69.5031 334.892 60.0464 334.892 60.0464L352.421 56.0386L352.432 56.0307M345.686 153.515C338.485 169.401 325.795 198.214 313.603 229.832C295.17 277.666 299.841 269.08 288.447 295.783C277.064 322.478 279.833 300.725 282.286 293.699C284.737 286.682 290.656 264.946 295.55 250.901C298.196 243.328 306.667 222.623 315.611 200.949M345.686 153.515C346.101 152.066 346.543 150.529 347.012 148.875C356.086 116.833 359.396 101.394 359.396 101.394C359.396 101.394 345.713 107.948 321.33 142.386C296.954 176.836 291.008 191.327 287.591 198.478C284.165 205.627 276.399 234.526 293.951 204.045C311.502 173.574 326.504 152.78 333.562 144.804C335.861 142.206 338.996 138.668 342.024 134.961M345.686 153.515C337.991 180.183 338.107 174.607 325.286 213.528C311.767 254.56 329.812 221.778 332.789 215.222C335.775 208.667 348.482 174.339 355.369 146.629C360.994 123.967 365.812 99.2386 367.377 90.9658M315.611 200.949C315.613 200.939 315.615 200.929 315.615 200.929M315.611 200.949C310.315 207.106 302.546 216.94 296.091 228.242C285.138 247.412 277.679 268.21 260.619 296.39C243.56 324.569 252.132 299.29 254.81 292.666C257.489 286.043 283.672 229.964 300.87 205.948C310.841 192.023 319.59 182.917 325.189 177.729M315.611 200.949C315.611 200.949 315.624 200.931 315.615 200.929M315.615 200.929C318.829 193.132 322.109 185.205 325.189 177.729M325.189 177.729L325.191 177.719C329.449 167.393 333.345 157.917 336.228 150.739C338.682 144.634 340.545 139.39 342.024 134.961M342.024 134.961C347.011 119.911 347.451 114.284 350.897 116.666C354.063 118.851 348.283 127.27 342.024 134.961ZM316.697 119.046C309.135 119.7 295.746 120.914 281.893 122.438L281.884 122.436M281.884 122.436C270.416 123.69 258.648 125.156 249.618 126.701C249.618 126.701 249.618 126.701 249.609 126.699M281.884 122.436C269.237 119.168 241.815 112.939 207.673 110.195C160.324 106.397 134.98 124.785 131.04 127.002C127.102 129.21 118.899 136.658 134.026 132.149C149.163 127.643 159.056 121.146 192.114 121.088C216.033 121.049 238.823 124.69 249.609 126.699M249.609 126.699C247.005 127.147 244.634 127.606 242.559 128.059C220.103 132.975 148.138 157.37 136.008 162.555C123.879 167.739 96.0346 189.001 139.674 173.364C183.322 157.729 205.95 150.554 213.584 147.223C215.367 146.455 219.937 145.405 225.868 144.186M225.868 144.186C235.209 142.255 247.908 139.891 258.277 137.488M225.868 144.186C206.986 155.613 169.905 177.794 145.375 190.836C111.264 208.965 125.612 212.554 151.864 200.222C171.324 191.089 228.506 153.873 258.277 137.488M258.277 137.488C269.57 134.88 278.12 132.221 276.663 130.008C275.719 128.583 268.667 131.766 258.277 137.488ZM278.883 142.79C277.45 151.818 274.496 168.248 270.29 180.802C264.172 199.055 241.916 274.969 232.009 297.69C222.103 320.411 216.508 327.432 224.804 296.064C233.099 264.696 249.549 218.827 253.331 205.555C257.12 192.296 262.912 175.347 262.912 175.347C262.912 175.347 201.164 271.262 197.722 277.03C194.28 282.798 165.584 313.508 193.893 267.56C222.194 221.601 238.83 195.397 251.656 175.22C257.354 166.254 262.145 158.036 265.716 151.666M190.349 211.143C187.563 232.219 179.762 288.613 172.422 315.745C163.303 349.496 151.138 385.666 149.698 389.472C148.248 393.277 131.331 420.794 143.652 385.353C155.972 349.912 165.601 326.943 172.799 288.285C177.544 262.753 180.851 234.65 182.554 218.496M175.531 225.424C168.76 223.14 151.32 218.345 127.5 219.867C96.551 221.83 55.1721 228.336 31.8829 232.722C8.59375 237.107 5.65657 246.437 37.0842 240.782C68.5098 235.136 101.627 231.933 116.121 230.378C130.613 228.833 147.237 229.135 154.724 229.448C159.547 229.645 165.565 230.983 169.238 231.905C166.029 245.419 135.185 351.414 121.117 378.891C107.039 406.366 110.912 388.3 113.066 381.206C115.21 374.121 124.415 345.888 135.765 316.43C147.118 286.963 156.097 253.865 156.574 250.182C156.811 248.372 156.48 247.707 154.949 247.869C153.385 248.013 150.565 249.023 145.799 250.505C141.863 251.73 135.491 253.771 127.932 256.311M127.932 256.311C117.436 259.835 104.671 264.317 93.0647 268.916C73.1128 276.809 48.0314 286.641 19.1172 306.978C-9.79709 327.315 1.50903 311.268 14.5372 300.435C27.5653 289.602 42.4786 280.22 69.5401 268.526C96.6016 256.832 132.556 244.763 144.789 242.014C150.905 240.639 157.346 239.867 162.287 239.428M127.932 256.311C119.842 264.023 106.381 276.477 96.1132 284.059C80.4017 295.664 56.0583 310.84 39.5555 324.678C23.0617 338.519 7.201 361.108 5.1299 363.395C3.06782 365.684 -5.70647 386.082 11.5602 368.636C28.838 351.182 27.2693 351.17 46.5626 333.146C59.7862 320.783 90.5924 297.891 115.547 280.616M143.927 261.929C137.21 265.933 126.998 272.679 115.547 280.616M115.547 280.616C107.204 289.772 96.8155 302.464 88.1146 316.955C70.3677 346.533 53.3902 379.1 39.4849 410.187C25.5795 441.273 45.3795 417.927 48.496 412.22C51.6035 406.511 62.2595 381.795 82.1139 344.948C93.1732 324.444 110.316 306.96 121.971 294.761M121.971 294.761C124.707 284.205 127.052 273.396 133.546 276.839C137.057 278.698 131.247 285.049 121.971 294.761ZM121.971 294.761C121.369 297.08 120.752 299.384 120.068 301.518C116.26 313.406 109.495 333.222 101.849 349.059C94.2041 364.897 84.7483 379.642 71.2985 402.775C57.8396 425.906 71.587 413.174 75.7832 408.26C79.9862 403.358 89.4281 393.093 108.119 352.887C126.81 312.68 139.951 274.867 139.951 274.867" stroke="white" stroke-width="2" stroke-miterlimit="10"/>
</svg>

<svg xmlns="http://www.w3.org/2000/svg" width="560" height="427" fill="none"><path stroke="#fff" stroke-miterlimit="10" stroke-width="2" d="M559 19.014S442.71 41.67 306.442 125.244c-136.268 83.573-170.391 148.743-170.391 148.743M438.73 51.449s-14.824-11.609-26.708-16.361c-11.883-4.753-36.014-12.6-42.044-15.338-6.021-2.736-28.448-22.947-30.776-17.963-2.327 4.984 9.705 20.788 18.434 24.135 8.73 3.347 14.804 4.376 26.022 9.32 11.217 4.944 28.81 17.198 32.046 17.908 5.289 1.162 7.806-4.09 2.241-6.04-5.564-1.949-16.353 1.395-22.981 1.494-6.629.099-77.976-7.747-86.918-10.107-8.941-2.36-30.722 2.367-2.394 11.172 28.327 8.805 71.676 5.342 95.844 9.573l24.166 4.242m23.292-9.656c-.115.316-47.944 31.13-73.177 63.658-25.233 32.528 6.132 5.174 11.599.205 5.476-4.967 21.399-17.56 35.901-29.437 8.311-6.802 16.629-11.687 22.813-15.19m0 0c2.521-8.316 2.203-13.058 7.265-13.49 5.88-.495 5.299 4.644 2.125 7.708-1.36 1.308-4.787 3.165-9.39 5.782Zm0 0c-1.834 6.038-3.723 13.305-5.687 20.08-1.787 6.172-3.635 11.927-5.546 15.979-6.912 14.626-41.565 52.949-48.166 63.161-6.593 10.224-34.225 48.072-30.283 51.716 3.943 3.644 13.161-11.497 16.768-16.534 3.046-4.272 52.556-68.932 74.409-104.594m0 0c3.992-6.523 7.064-12.064 8.753-16.105 6.975-16.64 9.995-31.523 11.27-40.12m-20.023 56.225c-1.845 5.342-4.811 12.729-9.584 22.452-11.734 23.872-46.892 68.968-49.981 73.086-3.09 4.128-16.789 31.337 6.57 4.589 23.362-26.757 43.211-59.122 48.25-67.967 5.05-8.854 11.641-19.068 17.35-39.826 5.707-20.748 2.523-24.221 2.523-24.221m-18.945 10.13s-60.809 58.64-69.25 76.027c-8.448 17.375-15.589 31.608 7.545 4.457 23.133-27.15 37.851-45.865 42.65-50.633 4.799-4.768 15.698-17.81 15.698-17.81m-34.214-33.101c-12.759 6.223-44.538 21.554-57.772 26.458-16.761 6.211-40.703 16.6-53.107 18.648-12.404 2.047-40.566 5.675-8.908-5.428 31.651-11.114 61.135-22.365 71.485-26.574 3.639-1.478 7.628-4.057 11.445-6.54m0 0c7.018-4.568 13.407-8.801 15.834-5.199 1.286 1.906-5.674 3.639-15.834 5.198Zm0 0c-19.421 2.99-50.547 5.338-58.14 7.021-11.566 2.557-47.851 8.836-60.407 10.135-12.556 1.298-30.63 3.391-30.63 3.391s-31.757-1.636-.137-9.65c31.63-8.013 114.866-17.47 114.866-17.47l17.529-4.007.011-.008m-6.746 97.484c-7.201 15.886-19.891 44.699-32.083 76.317-18.433 47.834-13.762 39.248-25.156 65.951-11.383 26.695-8.614 4.942-6.161-2.084 2.451-7.017 8.37-28.753 13.264-42.798 2.646-7.573 11.117-28.278 20.061-49.952m30.075-47.434c.415-1.449.857-2.986 1.326-4.64 9.074-32.042 12.384-47.481 12.384-47.481s-13.683 6.554-38.066 40.992c-24.376 34.45-30.322 48.941-33.739 56.092-3.426 7.149-11.192 36.048 6.36 5.567 17.551-30.471 32.553-51.265 39.611-59.241 2.299-2.598 5.434-6.136 8.462-9.843m3.662 18.554c-7.695 26.668-7.579 21.092-20.4 60.013-13.519 41.032 4.526 8.25 7.503 1.694 2.986-6.555 15.693-40.883 22.58-68.593 5.625-22.662 10.443-47.39 12.008-55.663m-51.766 109.983.004-.02m-.004.02c-5.296 6.157-13.065 15.991-19.52 27.293-10.953 19.17-18.412 39.968-35.472 68.148-17.059 28.179-8.487 2.9-5.809-3.724 2.679-6.623 28.862-62.702 46.06-86.718 9.971-13.925 18.72-23.031 24.319-28.219m-9.578 23.22s.013-.018.004-.02m0 0c3.214-7.797 6.494-15.724 9.574-23.2m0 0 .002-.01c4.258-10.326 8.154-19.802 11.037-26.98a277.263 277.263 0 0 0 5.796-15.778m0 0c4.987-15.05 5.427-20.677 8.873-18.295 3.166 2.185-2.614 10.604-8.873 18.295Zm-25.327-15.915c-7.562.654-20.951 1.868-34.804 3.392l-.009-.002m0 0c-11.468 1.254-23.236 2.72-32.266 4.265l-.009-.002m32.275-4.263c-12.647-3.268-40.069-9.497-74.211-12.241-47.349-3.798-72.693 14.59-76.633 16.807-3.938 2.208-12.141 9.656 2.986 5.147 15.137-4.506 25.03-11.003 58.088-11.061 23.919-.039 46.709 3.602 57.495 5.611m0 0c-2.604.448-4.975.907-7.05 1.36-22.456 4.916-94.421 29.311-106.551 34.496-12.129 5.184-39.973 26.446 3.666 10.809 43.648-15.635 66.276-22.81 73.91-26.141 1.783-.768 6.353-1.818 12.284-3.037m0 0c9.341-1.931 22.04-4.295 32.409-6.698m-32.409 6.698c-18.882 11.427-55.963 33.608-80.493 46.65-34.111 18.129-19.763 21.718 6.489 9.386 19.46-9.133 76.642-46.349 106.413-62.734m0 0c11.293-2.608 19.843-5.267 18.386-7.48-.944-1.425-7.996 1.758-18.386 7.48Zm20.606 5.302c-1.433 9.028-4.387 25.458-8.593 38.012-6.118 18.253-28.374 94.167-38.281 116.888-9.906 22.721-15.501 29.742-7.205-1.626 8.295-31.368 24.745-77.237 28.527-90.509 3.789-13.259 9.581-30.208 9.581-30.208s-61.748 95.915-65.19 101.683c-3.442 5.768-32.138 36.478-3.829-9.47 28.301-45.959 44.937-72.163 57.763-92.34a501.858 501.858 0 0 0 14.06-23.554m-75.367 59.477c-2.786 21.076-10.587 77.47-17.927 104.602-9.119 33.751-21.284 69.921-22.724 73.727-1.45 3.805-18.367 31.322-6.046-4.119 12.32-35.441 21.949-58.41 29.147-97.068 4.745-25.532 8.052-53.635 9.755-69.789m-7.023 6.928c-6.771-2.284-24.211-7.079-48.031-5.557-30.949 1.963-72.328 8.469-95.617 12.855-23.29 4.385-26.226 13.715 5.201 8.06 31.426-5.646 64.543-8.849 79.037-10.404 14.492-1.545 31.116-1.243 38.603-.93 4.823.197 10.841 1.535 14.514 2.457-3.209 13.514-34.053 119.509-48.121 146.986-14.078 27.475-10.205 9.409-8.051 2.315 2.144-7.085 11.349-35.318 22.699-64.776 11.353-29.467 20.332-62.565 20.809-66.248.237-1.81-.094-2.475-1.625-2.313-1.564.144-4.384 1.154-9.15 2.636a877.24 877.24 0 0 0-17.867 5.806m0 0c-10.496 3.524-23.261 8.006-34.867 12.605-19.952 7.893-45.034 17.725-73.948 38.062-28.914 20.337-17.608 4.29-4.58-6.543S42.48 280.22 69.54 268.526c27.062-11.694 63.016-23.763 75.249-26.512 6.116-1.375 12.557-2.147 17.498-2.586m-34.355 16.883c-8.09 7.712-21.551 20.166-31.819 27.748-15.711 11.605-40.055 26.781-56.557 40.619C23.062 338.519 7.2 361.108 5.13 363.395c-2.062 2.289-10.836 22.687 6.43 5.241 17.278-17.454 15.71-17.466 35.003-35.49 13.223-12.363 44.03-35.255 68.984-52.53m28.38-18.687c-6.717 4.004-16.929 10.75-28.38 18.687m0 0c-8.343 9.156-18.731 21.848-27.432 36.339-17.747 29.578-34.725 62.145-48.63 93.232-13.905 31.086 5.895 7.74 9.011 2.033 3.107-5.709 13.764-30.425 33.618-67.272 11.06-20.504 28.202-37.988 39.857-50.187m0 0c2.736-10.556 5.081-21.365 11.575-17.922 3.511 1.859-2.299 8.21-11.575 17.922Zm0 0c-.602 2.319-1.219 4.623-1.903 6.757-3.808 11.888-10.573 31.704-18.219 47.541-7.645 15.838-17.1 30.583-30.55 53.716-13.46 23.131.288 10.399 4.484 5.485 4.203-4.902 13.645-15.167 32.336-55.373 18.691-40.207 31.832-78.02 31.832-78.02"/></svg>
